X:92
T:Temperance reel
T:Teetotaller
R:reel
M:4/4
L:1/8
K:Gmaj
|: D | DGGF GABc | dBeB dBAc | BEED EFGA | BGAF GFED |
DGGF GABc | dBeB dBAc | BEED EFGA | BGAF G3 :|
|: A | Beed e2ef | geaf gfed | Bdd^c d2de | fdaf gfed |
Beed e2ef | geaf gfed | BEED EFGA | BGAF G3 :|
